www/assets/icons/phishing.svg

<svg xmlns="http://www.w3.org/2000/svg" width="24" height="24" viewBox="0 0 24 24" fill='currentColor'><path d="M19 9.5c0-1.3-.84-2.4-2-2.82V2.5h-2v4.18c-1.16.42-2 1.52-2 2.82s.84 2.4 2 2.82v3.18c0 2.21-1.79 4-4 4s-4-1.79-4-4v-1h3l-5-5v6c0 3.31 2.69 6 6 6s6-2.69 6-6v-3.18c1.16-.42 2-1.52 2-2.82m-3 1c-.55 0-1-.45-1-1s.45-1 1-1 1 .45 1 1-.45 1-1 1"/></svg>

<svg width="24" height="24" viewBox="0 0 24 24" xmlns="http://www.w3.org/2000/svg" fill='currentColor'><path d="M19 9.5C19 8.2 18.16 7.1 17 6.68V2.5H15V6.68C13.84 7.1 13 8.2 13 9.5C13 10.8 13.84 11.9 15 12.32V15.5C15 17.71 13.21 19.5 11 19.5C8.79 19.5 7 17.71 7 15.5V14.5H10L5 9.5V15.5C5 18.81 7.69 21.5 11 21.5C14.31 21.5 17 18.81 17 15.5V12.32C18.16 11.9 19 10.8 19 9.5ZM16 10.5C15.45 10.5 15 10.05 15 9.5C15 8.95 15.45 8.5 16 8.5C16.55 8.5 17 8.95 17 9.5C17 10.05 16.55 10.5 16 10.5Z"/></svg>
